X:8136
T:John of Paris. GS.018
M:6/8
L:1/8
Q:120
S:George Spencer m/s, Leeds,1831
R:Jig
O:England
A:Leeds
N: NB--The last three bars (assuming 8 bar B music) are missing  - page
N:15 is missing - so I have used the last three bars  of the A music.
N:  Not the same tune as either of the two Johns of Paris in Dave
N:Townsend's English Dance Music, or the one in Kerr's Merrie Melodies.
N:The 'dim's' are written as the standard signs under the notes, each
N: relates to a group of three crochets
H:1831
Z:vmp.Cherri Graebe
K:D major
"PRIMO"d | ded fed | efe gfe | "dim."dfa "dim."dfa | gfg e
2f | ded fed |! efe gfe | 
dfa gea | fea d2 || a | (age) afd | bgg aff |! (age) afd | cec ABc |  dA
f eAg |"last 3 bars missing" efe gfe | dfa gea | fea d2 ||!
"JOHN OF PARIS SECUNDO - READ AS BASS CLEF" z | Bdf Bdf | 
Acf Acf | Bdf Bdf | Fdf Fcf | Bdf Bdf |! Acf ABf |
 d2Bg2G | B2dB2 || z | Bcf Bdf | Acf Bdf |! Acf Bdf | Fcf F2 z | [B2b2]
z [A2a2] z |"last 3 bars missing" Acf ABf | d2Bg2G | B2dB2 ||
